static/cloud.svg

<svg width="339" height="110" viewBox="0 0 339 110" version="1.1" xmlns="http://www.w3.org/2000/svg" xmlns:xlink="http://www.w3.org/1999/xlink" xmlns:figma="http://www.figma.com/figma/ns">
<title>Shape</title>
<desc>Created using Figma</desc>
<g id="Canvas" transform="translate(2306 1761)" figma:type="canvas">
<g id="Shape" opacity="0.34" figma:type="vector">
<use xlink:href="#path0_fill" transform="translate(-2306 -1761)" fill="#FFFFFF"/>
</g>
</g>
<defs>
<path id="path0_fill" fill-rule="evenodd" d="M 331.573 110C 333.875 110 335.793 109.223 337.327 107.279C 338.862 105.724 339.245 103.392 338.862 101.06C 338.862 100.671 331.189 62.5795 284.77 59.0813C 281.317 26.0424 253.313 0 219.937 0C 189.63 0 164.311 20.9894 156.638 49.364C 149.733 43.9223 138.991 38.4806 124.413 38.4806C 92.5723 38.8693 82.2143 66.4664 81.8307 67.6325C 80.2962 71.5194 82.2144 75.7951 86.0507 76.9611C 89.8869 78.5159 94.1068 76.5724 95.2577 72.6855C 95.6413 71.9081 102.93 53.2509 124.413 52.8622C 147.048 52.8622 155.104 68.7986 155.104 69.1873C 156.638 72.2968 160.091 73.8516 163.16 73.0742C 166.613 72.2968 168.914 69.1873 168.914 66.0777C 168.914 37.7032 191.548 14.3816 219.937 14.3816C 247.942 14.3816 270.959 37.3145 270.959 66.0777C 270.959 69.9647 274.029 73.4629 278.248 73.4629C 304.719 73.4629 316.228 85.9011 321.598 94.841L 7.40686 94.841C 3.57058 94.841 0.117917 97.9505 0.117917 102.226C -0.649343 106.502 2.41972 110 6.63965 110L 331.573 110Z"/>
</defs>
</svg>

<svg width="339" height="110" viewBox="0 0 339 110" xmlns="http://www.w3.org/2000/svg" xmlns:xlink="http://www.w3.org/1999/xlink">
  <use xlink:href="#a" fill="#FFF" opacity=".34" />
  <defs>
    <path id="a" fill-rule="evenodd" d="M331.573 110c2.302 0 4.22-.777 5.754-2.721 1.535-1.555 1.918-3.887 1.535-6.219 0-.389-7.673-38.48-54.092-41.979C281.317 26.042 253.313 0 219.937 0c-30.307 0-55.626 20.99-63.299 49.364-6.905-5.442-17.647-10.883-32.225-10.883-31.84.388-42.199 27.985-42.582 29.151-1.535 3.887.383 8.163 4.22 9.33 3.836 1.554 8.056-.39 9.207-4.276.383-.778 7.672-19.435 29.155-19.824 22.635 0 30.691 15.937 30.691 16.325 1.534 3.11 4.987 4.665 8.056 3.887 3.453-.777 5.754-3.887 5.754-6.996 0-28.375 22.634-51.696 51.023-51.696 28.005 0 51.022 22.933 51.022 51.696 0 3.887 3.07 7.385 7.289 7.385 26.471 0 37.98 12.438 43.35 21.378H7.407c-3.836 0-7.29 3.11-7.29 7.385C-.648 106.502 2.42 110 6.64 110h324.933z"/>
  </defs>
</svg>
